icons/mailgun.svg

<?xml version="1.0" encoding="UTF-8"?>
<svg width="512px" height="143px" viewBox="0 0 512 143" version="1.1" xmlns="http://www.w3.org/2000/svg" xmlns:xlink="http://www.w3.org/1999/xlink" preserveAspectRatio="xMidYMid">
    <g>
				<path d="M56.1158844,48.5509565 C44.5313279,48.5509565 34.754354,57.9673043 34.754354,69.9169391 C34.7027427,75.5980341 36.9367488,81.0614617 40.9540553,85.0787682 C44.9713619,89.0960748 50.4347895,91.3300809 56.1158844,91.2784696 C67.7004409,91.2784696 77.4729627,81.8621217 77.4729627,69.9169391 C77.4729627,57.9673043 67.7004409,48.5509565 56.1158844,48.5509565 L56.1158844,48.5509565 Z M22.8091714,69.5518609 C22.8091714,51.4493217 37.6527192,36.6057739 55.7552583,36.6057739 C73.8533453,36.6057739 88.6968931,51.4493217 88.6968931,69.5518609 C88.6968931,70.6381913 88.6968931,72.0896 88.336267,73.1759304 C87.9711888,76.4304696 90.5089279,78.9637565 93.7679192,78.9637565 C99.1995714,78.9637565 99.9208235,72.0896 99.9208235,69.5518609 C99.9208235,45.2919652 80.0062496,25.3773913 55.7552583,25.3773913 C31.4953627,25.3773913 11.5896931,45.2919652 11.5896931,69.5518609 C11.5896931,93.8162087 31.4953627,113.72633 55.7552583,113.72633 C68.7867714,113.72633 80.3713279,108.294678 88.336267,99.2434087 L97.3830844,106.847722 C87.6105627,118.43673 72.4063888,125.680688 56.1114322,125.680688 C41.2119172,125.726759 26.9096072,119.82693 16.3760978,109.289242 C5.8425884,98.7515532 -0.0515670361,84.4469042 0.000339955804,69.5474087 C0.000339955804,38.7739826 24.9773801,13.4322087 56.1158844,13.4322087 C86.8848583,13.4322087 111.866006,38.7784348 111.866006,69.556313 C111.866006,81.8665739 106.073728,92.0086261 94.1285453,92.0086261 C89.0575192,92.0086261 85.8029801,89.470887 83.9909453,86.9376 C78.198667,96.3539478 67.6959888,102.506852 55.7508062,102.506852 C47.0038892,102.536553 38.606655,99.0749963 32.4216151,92.8899563 C26.2365751,86.7049163 22.775018,78.3076822 22.8047192,69.5607652 L22.8091714,69.5518609 Z M56.1114322,59.774887 C61.5430844,59.774887 65.8884062,64.1202087 65.8884062,69.5518609 C65.8884062,74.983513 61.5430844,79.3289177 56.1158844,79.3289177 C53.5196023,79.3395412 51.0265653,78.3129086 49.190701,76.4770443 C47.3548367,74.64118 46.3282041,72.148143 46.3388276,69.5518609 C46.3388276,64.1202087 50.6842322,59.774887 56.1158844,59.774887 L56.1114322,59.774887 Z" fill="#C02428"></path>
				<path d="M359.507189,47.4824348 C366.319015,47.4824348 372.8052,50.067705 377.454251,54.938197 L378.255293,55.8213565 L378.255293,48.9338435 L391.954632,48.9338435 L391.954632,107.649113 L391.931052,110.501712 C391.754315,120.466798 390.542551,125.171014 386.910319,130.488765 C381.861554,138.101983 372.845902,142.086678 362.752824,142.086678 C345.46629,142.086678 334.396126,131.332658 333.922984,113.901002 L333.907189,112.729043 L347.245902,112.729043 L347.40361,114.736052 C347.731643,118.432733 348.173226,120.339717 349.409658,122.514922 C351.934041,126.864696 357.343432,129.402435 362.752824,129.402435 C372.530493,129.402435 377.574193,123.619722 377.879876,111.722385 L377.894667,110.55193 L377.894667,102.217461 C372.485276,108.37927 366.715258,110.917009 359.146563,110.917009 C343.283467,110.917009 331.382806,97.8632348 331.382806,79.742887 C331.382806,60.8923826 343.283467,47.4824348 359.507189,47.4824348 Z M413.948371,48.9338435 L413.948371,83.3669565 C413.948371,93.517913 417.554632,98.228313 425.488406,98.228313 C433.492494,98.228313 437.130338,93.8371673 437.371706,84.397678 L437.384615,83.3669565 L437.384615,48.9338435 L451.088406,48.9338435 L451.088406,83.7320348 C451.088406,93.1528348 449.645902,98.228313 444.957763,103.303791 C439.91345,108.37927 433.42218,110.917009 425.488406,110.917009 C417.915258,110.917009 411.067815,108.37927 406.379676,103.303791 C402.268538,98.482087 400.435656,93.6603826 400.262646,85.113108 L400.249032,83.7320348 L400.249032,48.9338435 L413.948371,48.9338435 Z M240.166667,47.1218087 C247.33701,47.1218087 252.245699,49.3994471 257.951455,54.8783979 L258.910319,55.8213565 L258.910319,48.9338435 L272.614111,48.9338435 L272.614111,108.739896 L258.910319,108.739896 L258.910319,102.582539 C252.423502,108.37927 247.735363,110.55193 240.522841,110.55193 C223.938493,110.55193 212.037832,97.1419826 212.037832,78.2914783 C212.037832,60.5317565 223.938493,47.1218087 240.166667,47.1218087 Z M187.163537,47.1218087 C200.151231,47.1218087 206.989027,55.0233938 207.339917,70.4977755 L207.354145,71.7690435 L207.354145,109.826226 L193.650354,109.826226 L193.650354,76.4794435 C193.650354,64.8815304 191.125971,60.5317565 184.634702,60.5317565 C176.965473,60.5317565 173.674293,65.6228012 173.469939,77.451198 L173.459745,78.6565565 L173.459745,109.4656 L159.760406,109.4656 L159.760406,76.1188174 C159.760406,65.2466087 156.875397,60.1711304 150.744754,60.1711304 C143.071217,60.1711304 139.784067,65.2621751 139.579978,77.0905719 L139.569797,78.2959304 L139.569797,109.104974 L125.866006,109.104974 L125.866006,48.9338435 L139.569797,48.9338435 L139.569797,54.3699478 C144.614111,48.5687652 147.859745,47.1218087 153.629763,47.1218087 C160.121032,47.1218087 165.886597,50.0201739 169.492858,55.8213565 C173.820371,50.3808 179.951015,47.1218087 187.163537,47.1218087 Z M297.492858,48.9338435 L297.492858,109.104974 L283.789067,109.104974 L283.789067,48.9338435 L297.492858,48.9338435 Z M490.027119,47.1218087 C504.438806,47.1218087 511.312682,55.0447638 511.647368,70.8948006 L511.660232,72.1296696 L511.660232,109.104974 L497.956441,109.104974 L497.956441,75.393113 C497.956441,63.7952 495.436511,59.8060522 486.781484,59.8060522 C477.677425,59.8060522 474.354489,64.9359596 474.172039,78.8526717 L474.164024,109.104974 L460.460232,109.104974 L460.460232,48.9338435 L473.803397,48.9338435 L473.803397,54.3699478 C479.208337,48.9338435 483.53585,47.1218087 490.027119,47.1218087 Z M323.809658,0 L323.809658,108.739896 L310.110319,108.739896 L310.110319,0 L323.809658,0 Z M242.686597,59.4409739 C233.314771,59.4454261 226.10225,67.7798957 226.10225,78.6565565 C226.10225,90.2544696 232.954145,98.228313 242.686597,98.228313 C252.784128,98.228313 259.631571,90.2544696 259.631571,78.6565565 C259.631571,67.7597934 253.192837,59.9274996 243.595501,59.4628214 L242.686597,59.4454261 L242.686597,59.4409739 Z M362.031571,59.4409739 C351.934041,59.4454261 345.442771,67.4192696 345.442771,79.0171826 C345.442771,90.6150957 351.934041,98.228313 362.031571,98.228313 C371.764024,98.228313 378.615919,90.2544696 378.615919,78.6565565 C378.615919,67.7597934 372.512099,59.9274996 362.939121,59.4628214 L362.031571,59.4409739 Z M290.636511,15.2219826 C293.045318,15.2038523 295.355822,16.1540293 297.051814,17.8583963 C298.747805,19.5627633 299.686589,21.8779194 299.656615,24.2821565 C299.687795,26.6871605 298.749545,29.0034729 297.05342,30.708811 C295.357296,32.4141491 293.0461,33.364934 290.640963,33.3467826 C285.592197,33.3467826 281.625311,29.3576348 281.625311,24.2821565 C281.595355,21.8786971 282.533531,19.5642298 284.228554,17.8599956 C285.73524,16.3451207 287.72732,15.4256252 289.839519,15.2518844 L290.640963,15.2219826 L290.636511,15.2219826 Z" fill="#000000"></path>
		</g>
</svg>

<svg xmlns="http://www.w3.org/2000/svg" viewBox="0 0 511.66 142.087">
  <path fill="#c02428" d="M56.116 48.551c-11.585 0-21.362 9.416-21.362 21.366a21.17 21.17 0 0 0 21.362 21.361c11.584 0 21.357-9.416 21.357-21.361 0-11.95-9.773-21.366-21.357-21.366zm-33.307 21c0-18.102 14.844-32.945 32.946-32.945 18.098 0 32.942 14.843 32.942 32.946 0 1.086 0 2.538-.36 3.624-.366 3.254 2.172 5.788 5.43 5.788 5.433 0 6.154-6.874 6.154-9.412 0-24.26-19.915-44.175-44.166-44.175-24.26 0-44.165 19.915-44.165 44.175 0 24.264 19.905 44.174 44.165 44.174 13.032 0 24.616-5.431 32.581-14.483l9.047 7.605c-9.772 11.589-24.977 18.833-41.272 18.833A55.938 55.938 0 0 1 .001 69.547c0-30.773 24.976-56.115 56.115-56.115 30.769 0 55.75 25.346 55.75 56.124 0 12.31-5.792 22.453-17.737 22.453-5.071 0-8.326-2.538-10.138-5.071-5.792 9.416-16.295 15.569-28.24 15.569A32.835 32.835 0 0 1 22.805 69.56zm33.302-9.776a9.736 9.736 0 0 1 9.777 9.777 9.735 9.735 0 0 1-9.772 9.777 9.737 9.737 0 0 1-9.777-9.777 9.736 9.736 0 0 1 9.777-9.777z"/>
  <path d="M359.507 47.482c6.812 0 13.298 2.586 17.947 7.456l.801.883v-6.887h13.7v58.715l-.024 2.853c-.177 9.965-1.388 14.669-5.02 19.987-5.05 7.613-14.065 11.598-24.158 11.598-17.287 0-28.357-10.754-28.83-28.186l-.016-1.172h13.339l.158 2.007c.328 3.697.77 5.604 2.006 7.779 2.524 4.35 7.933 6.887 13.343 6.887 9.777 0 14.821-5.782 15.127-17.68l.015-1.17v-8.335c-5.41 6.162-11.18 8.7-18.748 8.7-15.864 0-27.764-13.054-27.764-31.174 0-18.85 11.9-32.26 28.124-32.26zm54.441 1.452v34.433c0 10.15 3.607 14.861 11.54 14.861 8.004 0 11.642-4.39 11.884-13.83l.013-1.031V48.934h13.703v34.798c0 9.42-1.442 14.496-6.13 19.572-5.045 5.075-11.536 7.613-19.47 7.613-7.573 0-14.42-2.538-19.108-7.613-4.111-4.822-5.944-9.644-6.117-18.19l-.014-1.382V48.934zm-173.781-1.812c7.17 0 12.079 2.277 17.784 7.756l.96.943v-6.887h13.703v59.806H258.91v-6.157c-6.487 5.796-11.175 7.969-18.387 7.969-16.585 0-28.485-13.41-28.485-32.26 0-17.76 11.9-31.17 28.129-31.17zm-53.003 0c12.987 0 19.825 7.901 20.176 23.376l.014 1.271v38.057H193.65V76.48c0-11.597-2.524-15.947-9.015-15.947-7.67 0-10.96 5.09-11.165 16.92l-.01 1.205v30.809h-13.7V76.119c0-10.872-2.885-15.948-9.015-15.948-7.674 0-10.96 5.091-11.165 16.92l-.01 1.205v30.809h-13.704V48.934h13.704v5.436c5.044-5.801 8.29-7.248 14.06-7.248 6.491 0 12.257 2.898 15.863 8.7 4.327-5.441 10.458-8.7 17.67-8.7zm110.329 1.812v60.171h-13.704V48.934zm192.534-1.812c14.412 0 21.286 7.923 21.62 23.773l.013 1.235v36.975h-13.704V75.393c0-11.598-2.52-15.587-11.175-15.587-9.104 0-12.427 5.13-12.609 19.047l-.008 30.252H460.46V48.934h13.343v5.436c5.405-5.436 9.733-7.248 16.224-7.248zM323.81 0v108.74h-13.7V0zm-81.123 59.441c-9.372.004-16.585 8.339-16.585 19.216 0 11.597 6.852 19.571 16.585 19.571 10.097 0 16.945-7.974 16.945-19.571 0-10.897-6.44-18.73-16.036-19.194l-.91-.018zm119.345 0c-10.098.004-16.59 7.978-16.59 19.576s6.492 19.211 16.59 19.211c9.732 0 16.584-7.974 16.584-19.571 0-10.897-6.104-18.73-15.677-19.194zm-71.395-44.219a8.952 8.952 0 0 1 9.02 9.06 8.949 8.949 0 0 1-9.016 9.065c-5.049 0-9.016-3.99-9.016-9.065a8.949 8.949 0 0 1 8.215-9.03l.801-.03z"/>
</svg>
